X:127
T:Reels simple chords 444
M:3/4
L:1/8
K:D
de [f2D,2F,2A,2] d2 | ed B2 [dD,F,A,]B | A2 F2 G2 | [A2D,2F,2A,2] A2 B2<d2 | [eA,CEG]f2g |
f2 e2 [fD,F,A,]e | df ed B2 | [dD,F,A,]B A2 F2 | FG [A2A,2C2E2G2] A2 |
B2<c2 [d3D,3F,3A,3] |e d4 | [f2D,2F,2A,2] d2 ed | B2 [dD,F,A,]B A2 |
F2 G2 [A2D,2F,2A,2] | A2 B2<d2 | [eA,CEG]f2g f2 | e2 [fD,F,A,]e df |
ed B2 [dD,F,A,]B | A2 F2 FG | [A2A,2C2E2G2] A2 B2<c2 | [d2D,2F,2A,2]>e2 |
d4 [AD,F,A,]B | AG FG A2 | [B2G,2B,2D2]>c2 B2 | cB [AD,F,A,]B AG |
FD FD2< [E2A,2C2E2G2] |F E2 FG | [AD,F,A,]B AG FG | A2 [B2G,2B,2D2]>c2 |
B2 cB [AA,CEG]B | cd eg fe | [dD,F,A,]B AF D4 | [AD,F,A,]B AG |
FG A2 [B3G,3B,3D3] |c B2 cB | [AD,F,A,]B AG FD | FD2< [E2A,2C2E2G2]F |
E2 FG [AD,F,A,]B | AG FG A2 | [B2G,2B,2D2]>c2 B2 | cB [AA,CEG]B cd |
eg fe [dD,F,A,]B | AF D4 |


